public/TerazChinyLogoNegatyw.svg

<svg width="1202" height="250" viewBox="0 0 1202 250" fill="none" xmlns="http://www.w3.org/2000/svg">
<path fill-rule="evenodd" clip-rule="evenodd" d="M166.969 48.5995C168.69 46.8079 174.465 43.2245 183.801 43.2245C178.564 40.8356 161.359 37.1328 134.428 41.4328C144.228 36.431 164.276 21.1418 166.071 0C159.638 9.25699 139.635 30.0106 111.088 38.9689C116.624 34.0418 126.753 20.2011 122.983 4.25522C118.345 14.7813 101.438 38.0731 70.9168 47.0315C67.4757 48.0766 59.606 51.9586 55.6562 62.7086C54.16 65.6201 48.1605 72.0254 36.1315 74.3545C33.5133 74.5785 27.8279 74.3545 25.8081 74.3545C24.5364 74.6532 22.2178 76.1462 21.5441 78.8337C21.1495 80.4014 20.2874 83.94 21.5441 88.24C23.7131 92.4206 30.385 101.14 39.7209 102.573C38.0752 100.707 35.7711 96.0786 39.7209 92.4953C40.9927 92.346 43.9401 92.1369 45.5559 92.4953C47.1718 92.8536 55.8045 89.2105 59.9189 87.3442C63.6592 86.0004 72.1274 84.164 76.0772 87.5682C80.027 90.9723 72.3369 95.1081 67.9981 96.7505C66.2775 97.7956 61.5796 101.185 56.5526 106.381C51.5255 111.577 44.8826 109.442 42.1896 107.725C42.04 111.606 44.4338 119.46 55.206 119.818C57.2258 119.968 62.4324 118.788 67.1004 112.876C71.7683 106.963 79.2191 104.813 82.1366 103.917C83.4831 103.504 86.2211 102.618 87.2983 102.797C96.0507 103.917 114.561 101.902 120.306 83.9848C132.649 87.1949 150.827 99.2141 124.794 121.61C119.632 125.268 106.167 132.839 95.1706 137.735C80.5832 144.23 27.8442 167.074 12.1347 184.767C6.58463 190.347 0.0335953 200.545 0.000128756 211.832C-0.0263986 220.779 4.04205 230.409 15.9499 238.965C26.9873 246.895 42.7777 249.794 59.2235 249.989C92.9359 250.39 129.402 239.431 133.324 237.173C161.601 224.706 226.863 198.518 261.693 193.501C305.23 187.23 335.527 193.277 340.24 195.741C330.291 189.918 299.755 179.302 257.204 183.423V158.563C258.177 155.577 261.872 149.605 268.874 149.605C275.876 149.605 278.674 155.129 279.198 157.891V175.36C290.718 174.614 320.536 176.838 347.646 191.709L342.26 126.761L329.468 122.282V133.928L320.94 131.016V119.37L308.372 115.339V127.657L300.293 124.745V113.323L289.072 109.964L277.851 113.323V124.745L268.874 127.657V115.339L254.736 119.37V131.912L245.759 133.928V122.282L230.947 126.761L230.049 158.563C219.053 161.101 185.389 171.374 138.71 192.157C80.3603 218.137 65.1615 211.888 53.8787 212.538C42.2087 213.209 16.6247 196.412 38.8424 179.615C36.1493 182.676 32.6035 190.903 39.9645 199.324C47.3255 207.745 64.2768 207.013 71.8323 205.595C73.7014 201.34 86.9106 188.843 124.794 172.897C162.678 156.951 175.739 149.082 177.535 147.141C190.476 139.676 214.744 117.624 208.28 89.1359C201.817 60.6482 178.046 50.2418 166.969 48.5995ZM83.9511 55.318C83.1282 60.0958 78.4752 68.666 66.4462 64.7243C66.8203 60.917 70.8449 53.7055 83.9511 55.318Z" fill="#333333"/>
<path d="M408.905 189.57V102.632H374.723V86.4238H462.24V102.632H428.058V189.57H408.905Z" fill="#333333"/>
<path d="M486.09 190.601C477.348 190.601 469.687 188.882 463.106 185.444C456.623 181.907 451.564 177.094 447.93 171.003C444.394 164.913 442.626 157.987 442.626 150.227C442.626 142.368 444.345 135.443 447.783 129.45C451.319 123.36 456.132 118.595 462.222 115.157C468.41 111.719 475.433 110 483.291 110C490.952 110 497.779 111.67 503.77 115.01C509.762 118.35 514.477 123.065 517.915 129.156C521.352 135.246 523.071 142.417 523.071 150.669C523.071 151.455 523.022 152.339 522.924 153.321C522.924 154.304 522.875 155.237 522.777 156.121H457.212V143.891H513.053L505.833 147.722C505.931 143.203 504.998 139.225 503.034 135.786C501.069 132.348 498.368 129.647 494.93 127.682C491.591 125.717 487.711 124.735 483.291 124.735C478.772 124.735 474.794 125.717 471.357 127.682C468.017 129.647 465.365 132.397 463.4 135.934C461.534 139.372 460.601 143.449 460.601 148.164V151.111C460.601 155.826 461.681 160.001 463.842 163.636C466.003 167.27 469.048 170.07 472.977 172.035C476.906 173.999 481.424 174.982 486.532 174.982C490.952 174.982 494.93 174.294 498.466 172.919C502.002 171.544 505.145 169.382 507.896 166.435L517.767 177.781C514.231 181.907 509.762 185.1 504.36 187.359C499.056 189.52 492.966 190.601 486.09 190.601Z" fill="#333333"/>
<path d="M537.815 189.57V110.884H555.348V132.545L553.286 126.209C555.643 120.904 559.326 116.876 564.336 114.126C569.443 111.375 575.779 110 583.342 110V127.535C582.556 127.338 581.82 127.24 581.132 127.24C580.444 127.142 579.757 127.093 579.069 127.093C572.095 127.093 566.546 129.156 562.42 133.281C558.295 137.309 556.232 143.35 556.232 151.406V189.57H537.815Z" fill="#333333"/>
<path d="M644.774 189.57V173.656L643.743 170.267V142.417C643.743 137.014 642.122 132.839 638.881 129.892C635.639 126.847 630.728 125.325 624.147 125.325C619.727 125.325 615.356 126.012 611.034 127.387C606.811 128.763 603.225 130.678 600.279 133.134L593.059 119.725C597.283 116.483 602.292 114.077 608.088 112.505C613.981 110.835 620.071 110 626.357 110C637.751 110 646.542 112.751 652.73 118.252C659.017 123.655 662.16 132.054 662.16 143.449V189.57H644.774ZM620.022 190.601C614.128 190.601 608.972 189.619 604.551 187.654C600.131 185.591 596.694 182.791 594.238 179.255C591.881 175.62 590.702 171.544 590.702 167.025C590.702 162.604 591.733 158.626 593.796 155.089C595.957 151.553 599.444 148.753 604.257 146.69C609.07 144.627 615.454 143.596 623.41 143.596H646.247V155.826H624.736C618.45 155.826 614.226 156.858 612.066 158.921C609.905 160.885 608.824 163.341 608.824 166.288C608.824 169.628 610.15 172.28 612.802 174.245C615.454 176.21 619.138 177.192 623.852 177.192C628.371 177.192 632.398 176.161 635.934 174.098C639.568 172.035 642.171 168.99 643.743 164.962L646.837 176.013C645.069 180.63 641.877 184.216 637.26 186.77C632.742 189.324 626.996 190.601 620.022 190.601Z" fill="#333333"/>
<path d="M680.786 189.57V177.929L729.26 119.283L732.648 125.619H681.67V110.884H747.382V122.525L698.908 181.171L695.225 174.834H748.708V189.57H680.786Z" fill="#333333"/>
<path d="M841.175 191.043C833.317 191.043 825.999 189.766 819.222 187.212C812.543 184.56 806.698 180.876 801.689 176.161C796.778 171.347 792.947 165.699 790.197 159.215C787.446 152.732 786.071 145.659 786.071 137.997C786.071 130.334 787.446 123.262 790.197 116.778C792.947 110.295 796.827 104.695 801.836 99.9801C806.846 95.1667 812.69 91.4829 819.369 88.9288C826.048 86.2765 833.366 84.9503 841.322 84.9503C849.769 84.9503 857.48 86.4238 864.454 89.3709C871.428 92.2196 877.321 96.4928 882.134 102.19L869.758 113.831C866.026 109.804 861.851 106.807 857.235 104.843C852.618 102.78 847.609 101.748 842.206 101.748C836.804 101.748 831.844 102.632 827.325 104.401C822.905 106.169 819.025 108.674 815.686 111.916C812.444 115.157 809.891 118.988 808.024 123.409C806.256 127.829 805.372 132.692 805.372 137.997C805.372 143.301 806.256 148.164 808.024 152.584C809.891 157.005 812.444 160.836 815.686 164.078C819.025 167.32 822.905 169.825 827.325 171.593C831.844 173.361 836.804 174.245 842.206 174.245C847.609 174.245 852.618 173.263 857.235 171.298C861.851 169.235 866.026 166.141 869.758 162.015L882.134 173.803C877.321 179.402 871.428 183.676 864.454 186.623C857.48 189.57 849.72 191.043 841.175 191.043Z" fill="#333333"/>
<path d="M938.941 110C945.228 110 950.826 111.228 955.738 113.684C960.747 116.14 964.676 119.922 967.525 125.03C970.373 130.04 971.797 136.523 971.797 144.48V189.57H953.38V146.838C953.38 139.863 951.71 134.657 948.371 131.219C945.129 127.78 940.562 126.061 934.669 126.061C930.347 126.061 926.516 126.945 923.176 128.714C919.837 130.482 917.234 133.134 915.368 136.671C913.6 140.109 912.716 144.48 912.716 149.785V189.57H894.299V80.2351H912.716V132.103L908.738 125.619C911.488 120.609 915.466 116.778 920.672 114.126C925.976 111.375 932.066 110 938.941 110Z" fill="#333333"/>
<path d="M992.213 189.57V110.884H1010.63V189.57H992.213ZM1001.5 97.9172C998.058 97.9172 995.209 96.8366 992.95 94.6755C990.789 92.5143 989.709 89.9111 989.709 86.8659C989.709 83.7224 990.789 81.1192 992.95 79.0563C995.209 76.8951 998.058 75.8146 1001.5 75.8146C1004.93 75.8146 1007.73 76.846 1009.89 78.9089C1012.15 80.8736 1013.28 83.3786 1013.28 86.4238C1013.28 89.6656 1012.2 92.4161 1010.04 94.6755C1007.88 96.8366 1005.03 97.9172 1001.5 97.9172Z" fill="#333333"/>
<path d="M1077.97 110C1084.26 110 1089.86 111.228 1094.77 113.684C1099.78 116.14 1103.71 119.922 1106.56 125.03C1109.4 130.04 1110.83 136.523 1110.83 144.48V189.57H1092.41V146.838C1092.41 139.863 1090.74 134.657 1087.4 131.219C1084.16 127.78 1079.59 126.061 1073.7 126.061C1069.38 126.061 1065.55 126.945 1062.21 128.714C1058.87 130.482 1056.26 133.134 1054.4 136.671C1052.63 140.109 1051.75 144.48 1051.75 149.785V189.57H1033.33V110.884H1050.86V132.103L1047.77 125.619C1050.52 120.609 1054.5 116.778 1059.7 114.126C1065.01 111.375 1071.1 110 1077.97 110Z" fill="#333333"/>
<path d="M1134.81 219.187C1130.98 219.187 1127.15 218.549 1123.32 217.272C1119.49 215.994 1116.3 214.226 1113.75 211.967L1121.11 198.411C1122.98 200.081 1125.09 201.407 1127.45 202.389C1129.81 203.371 1132.21 203.863 1134.67 203.863C1138.01 203.863 1140.71 203.028 1142.77 201.358C1144.83 199.688 1146.75 196.888 1148.52 192.959L1153.08 182.644L1154.56 180.434L1184.32 110.884H1202L1165.17 195.906C1162.71 201.8 1159.96 206.466 1156.92 209.904C1153.97 213.342 1150.63 215.749 1146.9 217.124C1143.26 218.499 1139.23 219.187 1134.81 219.187ZM1151.02 192.369L1115.51 110.884H1134.67L1163.55 178.813L1151.02 192.369Z" fill="#333333"/>
</svg>

<svg xmlns="http://www.w3.org/2000/svg" fill="none" viewBox="0 0 1202 250"><path fill="#333" fill-rule="evenodd" d="M166.969 48.6c1.721-1.792 7.496-5.376 16.832-5.376-5.237-2.388-22.442-6.091-49.373-1.791 9.8-5.002 29.848-20.291 31.643-41.433-6.433 9.257-26.436 30.01-54.983 38.969 5.536-4.927 15.665-18.768 11.895-34.714-4.638 10.526-21.545 33.818-52.066 42.777-3.441 1.045-11.311 4.927-15.26 15.677-1.497 2.911-7.496 9.316-19.525 11.645-2.619.225-8.304 0-10.324 0-1.272.3-3.59 1.792-4.264 4.48-.395 1.567-1.257 5.106 0 9.406 2.17 4.18 8.841 12.9 18.177 14.333-1.646-1.866-3.95-6.494 0-10.078 1.272-.149 4.22-.358 5.835 0 1.616.359 10.249-3.285 14.363-5.15 3.74-1.345 12.208-3.181 16.158.223s-3.74 7.54-8.079 9.183c-1.72 1.045-6.418 4.434-11.445 9.63s-11.67 3.061-14.363 1.344c-.15 3.881 2.244 11.735 13.016 12.093 2.02.15 7.226-1.03 11.894-6.942 4.668-5.913 12.12-8.063 15.037-8.959 1.346-.413 4.084-1.299 5.161-1.12 8.753 1.12 27.263-.895 33.008-18.812 12.343 3.21 30.521 15.23 4.488 37.625-5.162 3.658-18.627 11.229-29.623 16.125-14.588 6.495-67.327 29.339-83.036 47.032C6.585 190.347.034 200.545 0 211.832c-.026 8.947 4.042 18.577 15.95 27.133 11.037 7.93 26.828 10.829 43.274 11.024 33.712.401 70.178-10.558 74.1-12.816 28.277-12.467 93.539-38.655 128.369-43.672 43.537-6.271 73.834-.224 78.547 2.24-9.949-5.823-40.485-16.439-83.036-12.318v-24.86c.973-2.986 4.668-8.958 11.67-8.958s9.8 5.524 10.324 8.286v17.469c11.52-.746 41.338 1.478 68.448 16.349l-5.386-64.948-12.792-4.479v11.646l-8.528-2.912V119.37l-12.568-4.031v12.318l-8.079-2.912v-11.422l-11.221-3.359-11.221 3.359v11.422l-8.977 2.912v-12.318l-14.138 4.031v12.542l-8.977 2.016v-11.646l-14.812 4.479-.898 31.802c-10.996 2.538-44.66 12.811-91.339 33.594-58.35 25.98-73.548 19.731-84.831 20.381-11.67.671-37.254-16.126-15.037-32.923-2.693 3.061-6.239 11.288 1.123 19.709 7.36 8.421 24.312 7.689 31.867 6.271 1.87-4.255 15.079-16.752 52.962-32.698s50.945-23.815 52.741-25.756c12.941-7.465 37.209-29.517 30.745-58.005-6.463-28.488-30.234-38.894-41.311-40.536m-83.018 6.718c-.823 4.778-5.476 13.348-17.505 9.406.374-3.807 4.399-11.019 17.505-9.406" clip-rule="evenodd"/><path fill="#333" d="M408.905 189.57v-86.938h-34.182V86.424h87.517v16.208h-34.182v86.938z"/><path fill="#333" d="M486.09 190.601q-13.113 0-22.984-5.157-9.725-5.305-15.176-14.441-5.304-9.135-5.304-20.776 0-11.788 5.157-20.777 5.304-9.136 14.439-14.293Q471.504 110 483.291 110q11.492 0 20.479 5.01 8.988 5.01 14.145 14.146 5.156 9.135 5.156 21.513 0 1.179-.147 2.652 0 1.474-.147 2.8h-65.565v-12.23h55.841l-7.22 3.831q.147-6.778-2.799-11.936-2.947-5.157-8.104-8.104-5.009-2.947-11.639-2.947-6.778 0-11.934 2.947-5.01 2.947-7.957 8.252-2.799 5.157-2.799 12.23v2.947q0 7.072 3.241 12.525 3.242 5.451 9.135 8.399t13.555 2.947q6.63 0 11.934-2.063t9.43-6.484l9.871 11.346q-5.304 6.19-13.407 9.578-7.956 3.242-18.27 3.242M537.815 189.57v-78.686h17.533v21.661l-2.062-6.336q3.535-7.958 11.05-12.083Q571.997 110 583.342 110v17.535a9 9 0 0 0-2.21-.295 15 15 0 0 0-2.063-.147q-10.46 0-16.649 6.188-6.188 6.041-6.188 18.125v38.164zM644.774 189.57v-15.914l-1.031-3.389v-27.85q0-8.105-4.862-12.525-4.863-4.567-14.734-4.567-6.63 0-13.113 2.062-6.335 2.063-10.755 5.747l-7.22-13.409q6.336-4.863 15.029-7.22 8.84-2.505 18.269-2.505 17.091 0 26.373 8.252 9.43 8.105 9.43 25.197v46.121zm-24.752 1.031q-8.84 0-15.471-2.947-6.63-3.095-10.313-8.399-3.536-5.452-3.536-12.23 0-6.631 3.094-11.936 3.242-5.304 10.461-8.399t19.153-3.094h22.837v12.23h-21.511q-9.43 0-12.67 3.095-3.242 2.946-3.242 7.367 0 5.01 3.978 7.957t11.05 2.947q6.778 0 12.082-3.094 5.451-3.094 7.809-9.136l3.094 11.051q-2.652 6.926-9.577 10.757-6.777 3.831-17.238 3.831M680.786 189.57v-11.641l48.474-58.646 3.388 6.336H681.67v-14.735h65.712v11.641l-48.474 58.646-3.683-6.337h53.483v14.736zM841.175 191.043q-11.787 0-21.953-3.831-10.019-3.978-17.533-11.051-7.367-7.22-11.492-16.946-4.126-9.725-4.126-21.218t4.126-21.219q4.125-9.725 11.639-16.798 7.515-7.22 17.533-11.051 10.019-3.98 21.953-3.979 12.67 0 23.132 4.42 10.46 4.275 17.68 12.82l-12.376 11.641q-5.599-6.041-12.523-8.988-6.925-3.095-15.029-3.095t-14.881 2.653q-6.63 2.652-11.639 7.515-4.862 4.862-7.662 11.493-2.652 6.63-2.652 14.588t2.652 14.587q2.8 6.631 7.662 11.494 5.009 4.863 11.639 7.515 6.778 2.652 14.881 2.652t15.029-2.947q6.924-3.094 12.523-9.283l12.376 11.788q-7.22 8.399-17.68 12.82-10.461 4.42-23.279 4.42M938.941 110q9.43 0 16.797 3.684 7.514 3.684 11.787 11.346 4.272 7.515 4.272 19.45v45.09H953.38v-42.732q0-10.462-5.009-15.619-4.863-5.158-13.702-5.158-6.483 0-11.493 2.653-5.009 2.652-7.808 7.957-2.652 5.157-2.652 13.114v39.785h-18.417V80.235h18.417v51.868l-3.978-6.484q4.125-7.515 11.934-11.493Q928.628 110 938.941 110M992.213 189.57v-78.686h18.417v78.686zm9.287-91.653q-5.162 0-8.55-3.242-3.241-3.24-3.241-7.81 0-4.715 3.241-7.809 3.388-3.24 8.55-3.241c3.43 0 6.23 1.031 8.39 3.094q3.39 2.948 3.39 7.515 0 4.863-3.24 8.251c-2.16 2.162-5.01 3.242-8.54 3.242M1077.97 110q9.435 0 16.8 3.684 7.515 3.684 11.79 11.346c2.84 5.01 4.27 11.493 4.27 19.45v45.09h-18.42v-42.732q0-10.462-5.01-15.619c-3.24-3.439-7.81-5.158-13.7-5.158q-6.48 0-11.49 2.653c-3.34 1.768-5.95 4.42-7.81 7.957-1.77 3.438-2.65 7.809-2.65 13.114v39.785h-18.42v-78.686h17.53v21.219l-3.09-6.484c2.75-5.01 6.73-8.841 11.93-11.493q7.965-4.126 18.27-4.126M1134.81 219.187q-5.745 0-11.49-1.915-5.745-1.917-9.57-5.305l7.36-13.556a22.3 22.3 0 0 0 6.34 3.978c2.36.982 4.76 1.474 7.22 1.474q5.01 0 8.1-2.505c2.06-1.67 3.98-4.47 5.75-8.399l4.56-10.315 1.48-2.21 29.76-69.55H1202l-36.83 85.022q-3.69 8.841-8.25 13.998-4.425 5.157-10.02 7.22-5.46 2.063-12.09 2.063m16.21-26.818-35.51-81.485h19.16l28.88 67.929z"/></svg>
